build/assets/img/icons/error.svg

<svg width="34" height="32" viewBox="0 0 34 32" fill="none" xmlns="http://www.w3.org/2000/svg">
<path d="M15.625 6.70801V14.25C15.625 14.6387 15.757 14.965 16.021 15.229C16.285 15.493 16.6113 15.625 17 15.625C17.3887 15.625 17.715 15.493 17.979 15.229C18.243 14.965 18.375 14.6387 18.375 14.25V6.70801C18.375 6.31934 18.243 5.99301 17.979 5.72901C17.715 5.46501 17.3887 5.33301 17 5.33301C16.6113 5.33301 16.285 5.46501 16.021 5.72901C15.757 5.99301 15.625 6.31934 15.625 6.70801ZM17 21.792C17.4167 21.792 17.764 21.653 18.042 21.375C18.3193 21.097 18.458 20.7497 18.458 20.333C18.458 19.9163 18.3193 19.5693 18.042 19.292C17.764 19.014 17.4167 18.875 17 18.875C16.5833 18.875 16.236 19.014 15.958 19.292C15.6807 19.5693 15.542 19.9163 15.542 20.333C15.542 20.7497 15.6807 21.097 15.958 21.375C16.236 21.653 16.5833 21.792 17 21.792ZM0.333008 30.333V3.12501C0.333008 2.37501 0.611008 1.72234 1.16701 1.16701C1.72234 0.611008 2.37501 0.333008 3.12501 0.333008H30.875C31.625 0.333008 32.2777 0.611008 32.833 1.16701C33.389 1.72234 33.667 2.37501 33.667 3.12501V24.208C33.667 24.958 33.389 25.611 32.833 26.167C32.2777 26.7223 31.625 27 30.875 27H7.00001L2.70801 31.292C2.26401 31.736 1.75734 31.84 1.18801 31.604C0.618008 31.368 0.333008 30.9443 0.333008 30.333ZM3.12501 26.958L5.83301 24.208H30.875V3.12501H3.12501V26.958Z" fill="#D63329"/>
</svg>

<svg width="34" height="32" fill="none" xmlns="http://www.w3.org/2000/svg"><path d="M15.625 6.708v7.542c0 .389.132.715.396.979s.59.396.979.396.715-.132.979-.396a1.33 1.33 0 00.396-.979V6.708a1.33 1.33 0 00-.396-.979A1.33 1.33 0 0017 5.333a1.33 1.33 0 00-.979.396 1.33 1.33 0 00-.396.979zM17 21.792c.417 0 .764-.139 1.042-.417.277-.278.416-.625.416-1.042 0-.417-.139-.764-.416-1.041A1.414 1.414 0 0017 18.875c-.417 0-.764.139-1.042.417a1.412 1.412 0 00-.416 1.041c0 .417.139.764.416 1.042.278.278.625.417 1.042.417zM.333 30.333V3.125c0-.75.278-1.403.834-1.958C1.722.611 2.375.333 3.125.333h27.75c.75 0 1.403.278 1.958.834.556.555.834 1.208.834 1.958v21.083c0 .75-.278 1.403-.834 1.959-.555.555-1.208.833-1.958.833H7l-4.292 4.292c-.444.444-.95.548-1.52.312-.57-.236-.855-.66-.855-1.271zm2.792-3.375l2.708-2.75h25.042V3.125H3.125v23.833z" fill="#D63329"/></svg>
